X:1
T:III. Le Mort de Socrate
T:Erik Satie
T:Plato, Phèdre (Victor Cousin)
%%score 1 { ( 2 3 ) | ( 4 5 6 ) }
L:1/8
Q:1/4=72
M:4/4
K:C
V:1 treble nm="Voice" snm="Vo."
V:2 treble nm="Piano" snm="Pno."
V:3 treble 
V:4 bass 
V:5 bass 
V:6 bass 
V:1
 z8 | z8 | z8 | z8 | z!p! (Bdd edcB | A2 AG A2 ^F) z | z2 z!mf! (A BdcB | A2 AG AdBA | %8
w: ||||De- puis la con- dam- na- ti-|on de So- cra- te|nous ne man- qui- ons|pas un seul jour d’al- ler le|
 (A2 A)) z!p! (BABA | BA B2 B) z (e^f | gGAB cde^f | e2) z (B B!<(!ABB!<)! | BA B2)!mf! (E^FGA | %13
w: voir. * Com- me la pla-|ce pub- li- que, où le|ju- ge- ment a- vait é- té ren-|du, é- tait tout près de|la pri- son, nous nous y ras-|
 Bc d2 ed e2) | z (EDE ^FG{/G)} E2 | z (Eed cBdc | B2 B)(d BA B2 | AB G2 ^F2) z (E | ^FABd dc d2 | %19
w: sem- bli- ons le ma- tin,|et là nous at- ten- dions,|en nous en- tre- te- nant en-|sem- ble, que la pr- ison|fût ou- ver- te, et|el- le ne l’é- tait ja- mais|
 AA B2 B) z z2 | z8 |!f! (ED{/E)} E2 z (G^FE | DE A2 BAG^F | E2) z (G BBBB | B) z (BB ^cAA^F) | %25
w: de bonne heu- re...||...Le geô- lier, qui nous in-|tro- dui- sait or- di- nai- re-|ment, vint au de- vant de|nous, et nous dit d’at- ten- dre|
 z!mf! (!courtesy!=cdc A_BcB | G2 GA GAGA | _B2 A) z z4 | z!mf! (_Bdd ed c2 | _BGAB cd e2) | %30
w: et de ne pas en- trer a-|vant qu’il nous ap- pe- lât lui|mê- me.|Quel- ques mo- ments a- près,|il re- vint et nous ou- vrit.|
 (eg d2) (ec !courtesy!=B2 | B^G ^c2 c2 BB | ABeB d2 dd | =c2)!f! (cc d2 A2) | %34
w: En en- trant, nous trou- vâm-|es So- cra- te qu’on ve-|nait de dé- li- vrer de ses|fers, et Xan- tip- pe,|
 z!p! (^F"^subito"EG F2) z A | BG A2 (ee A2 | cccc G2 cd | c2- c) z z4 | z8 | z (ded g2 g) z | %40
w: tu la con- nais, au-|près de lui, et te- nant|un de ses en- fants dans ses|bras... *||...A- lors So- cra- te,|
 (edcB Ac d2) | z (eed eBcd | e^fgf f) z (de | eE^FA G2) z2 | (GE !courtesy!=F2) z4 | z8 | z8 | %47
w: se met- tant sur son sé- ant,|pli- a la jam- be qu’on ve-|nait de dé- ga- ger, la frot-|ta a- vec sa main,|et nous dit...|||
 z (Ffe d2 d) z | z2 (c_B (A2 A)) z | (!courtesy!=BBBB B2 B2 | ^cde^f e2- e) z | %51
w: L’é- tran- ge cho- se|mes * a- mis,|que ce que les hom- mes|a- ppel- lent plai- sir, *|
 z (edB B!courtesy!=cde | dgdB A2 cd | dAAA AAAA) | z6 (ec | dABe BAGG | GG)(GG GG G2 | %57
w: et comme il a de mer- veil-|leux rap- ports a- vec la dou-|leur que l’on pré- tend con- trai- re!...|N’est- ce|pas dans la jouis- sance et la souf-|fran- ce que le corps sub- jugue|
 GGGG G2 G) z | z8 |!mf! (^cdeB cdeB | ^F=GAE F2 B)(A | GG d2 eg^fd | eE^FF EE F2 | E2) z2 z (ABc | %64
w: et en- chaî- ne l’â- me?...||A grande pei- ne per- su- a- de-|rais- je aux au- tres hom- mes que|je ne prends point pour un mal-|heur l’é- tat où je me trou-|ve, puis- que je|
 dd e2 dddd | cccc _e2 e) z | z4 (_B_ABc | _B z _ed cc c2) | z (FFF{/F} f_e c2 | _B) z (_AG F_EEE | %70
w: ne sau- rais vous le per- su-|a- der à vous- mê- mes...|Vous me cro- yez|donc, à ce qu’il pa- raît,|bien in- fé- rieur aux cyg-|nes, pour ce qui re- gar- de|
 _EEEE EEEE | _EE E2 E3) z | z2 z (_e fd c2) | (Gc A2 G^FBG | A) z (AA Bd/d/ D2 | GE A2 cedc | %76
w: le pres- sen- ti- ment et la di-|vi- na- ti- on.|Les cy- * gnes,|quand ils sen- tent qu’ils vont mou-|rir, chan- tent en- co- re mieux|ce jour- là qu’ils n’ont ja- mais|
 _B) z (cA dAfA | _BAcA d2 d) z | z8 | z8 | z (G_BG cG G2 | AG_BG c2 G2) | z (G_BG cGdG | %83
w: fait, dans la joie d’al- ler trou-|ver le dieu qu’ils ser- vent...|||...Bien que j’aie plu- sieurs fois|ad- mir- é So- cra- te,|je ne le fis ja- mais au-|
 A2 _BG cGdG | ^F4 E2) z2 | z8 | z2 z (^F GA B2 | E^F G2 F) z (AB | c!mp!d e2 E^FGA | %89
w: tant que dans cet- te cir- con-|stan- ce...||J’é- tais as- sis|à sa droi- te, à cô-|té du lit, sur un pe- tit|
{/A} A2 A) z z2 z (B | A) z z2 (A^FEF | GBcd c2) z2 | z2 (d_B cc d2 | cAGA) (Ac c2 | %94
w: siè- ge, et|lui, il é- tait as-|sis plus haut que moi.|Me pas- sant la main|sur la tè- te, et pre- nant|
 fd c2) (dcc_B | Ad G2 F2) z2 | z8 | z2 z (G A2) (_BG | F2) z (_B A2) z2 | z2 (GG!>(! Acd_e | %100
w: mes che- veux, qui tom- baient sur|mes é- pau- les:...||De- main, O Phé-|don dit- il,|tu fe- ras cou- per ces|
 fd!>)! _B2)!pp! (AF G2) | z8 | z8 | z!p! (GAc d2 !courtesy!=BA | BAG^F E2 FG | A2 A2) (dc d2 | %106
w: beaux che- veux; n’est- ce pas?...|||...Il se le- va et pas-|sa dans u- ne cham- bre voi-|si- ne pour y pren-|
 cB A2) z4 | (cccc c2) z (c | ABcd ecde | c3 _B) z4 | z8 | (Ad !courtesy!=B2) (AG ^F2 | %112
w: dre le bain;|Cri- ton l’y sui- vit, et|So- cra- te nous pri- a de l’at-|ten- dre...||En ren- trant, il s’as- sit|
 ED C2) (D!courtesy!=FAA | B2 G^F E2 EB | B2 A) z z4 |!mf! (EA^FF FF ^G2 | ^FB A2 !courtesy!=GGGG | %117
w: sur son lit, et n’eut pas le|temps de nous di- re grand’|cho- se:...|Car le ser- vi- teur des On-|ze en- tra pres- queen mê- me|
 !^!c2) z"^ralentir" (_B GGFF | F2) z2 z2 z (c |"^tres lent" c2 _B) z z2 z (_A | c2) z2 z4 | %121
w: temps, et s’ap- pro- chant de|lui: So-|cra- te, dit-|il,|
 z (B A2 ^G2 ^FA | AA B2 ^cA B2 | BB ^G2 ^FG E2 | ^FB A2 F) z z2 | z (AAA AAAA | %126
w: j’es- pè- re que je|n’au- rai pas à te fai-|re le mê- me re- pro-|che qu’aux au- tres:|dès que je viens les a- ver-|
 A2) z (B cA) z (A | AAG) z (GABB | B^c B2) (dBAA | AG A2) z (BBA | G2 A) z z2 (G^F | %131
w: tir, par l’or- dre des|ma- gi- strats, qu’il faut boi- re|le poi- son, ils s’em- por- tent|con- tre moi et me mau-|dis- sent; mais pour|
 E2) z (A Bee^c | B2 AB eBB) z | (BE^FA EEEE | EEEE EE E2 | EEEE E2) (AA | BB e2 ee e2 | %137
w: toi, je t’ai tou- jours trou-|vé le plus cou- ra- geux,|le plus doux et le meil- leur de|ceux qui sont ja- mais ve- nus|dans cet- te pri- son; et en|ce mo- ment je sais bien|
 d^cBA GABc | d^cBA GA A2) | z (AGA GAB^c | d2 ^cB AA A2) | z (BBB BB B2) | z8 | (B^cAe e2 ^fe | %144
w: que je suis as- su- ré que tu|n’es pas fâ- ché con- tre moi,|mais con- tre ceux qui sont la|cau- se de ton mal- heur,|et que tu con- nais bien.||Main- te- nant, tu sais ce que|
 dd^cc B2) z2 | z4!pp! (^F2{/F)} F2 | z4 (^FFFF | ^FFFF FFFF | ^F2 FF FFFF | E2 E) z z4 | %150
w: je viens t’an- non- cer;|a- dieu,|tâ- che de sup-|por- ter a- vec ré- sig- na- ti-|on ce qui est i- né- vi-|ta- ble.|
 (BA^cA B2) (ed | d^c B2 BBBB | B2 B2) (A^G^FE | E2) z2 z4 | z8 | z8 | z8 | z (B d2 edcB | %158
w: Et en mê- me temps il se|dé- tour- na en fon- dant en|lar- mes, et se re- ti-|ra.||||So- cra- te, le re- gar-|
 A2 z G A2) z2 | z2 z!mf! (A BdcB | A2 AG A2) z2 | z4 (^G^FGF | ^G^F G2) z4 | z (A^cA ^dA B2) | %164
w: dant, lui dit:|et toi aus- si, re-|çois mes a- dieux;|je fe- rai ce|que tu dis.|Et se tour- nant vers nous:|
 (BA^cA ^d) z z2 | (e!courtesy!=d!courtesy!=cd e2 AB | c2 c) z z2 (cd | ecAF BFc) z | %168
w: vo- yez, nous dit- il,|quelle hon- nê- te- té dans cet|hom- me: tout le|temps que j’ai é- té i- ci,|
 (GGGG GG G2) | z (DEE FF G2 | D!>!D E2) z4 | (AFGE FD E2 | E) z2 (F GG A2) | z (A_BB c2 G2 | %174
w: il m’est ve- nu voir sou- vent,|et s’est en- tre- te- nu|a- vec moi:|c’é- tait le meil- leur des hom-|mes; et main- te- nant|comme il me pleu- re|
 G_B A2) z4 | (A^F E2) z (A G2) | z (ABG ^F2 E2) | z (DEG ^F2 D2) | z (dBe ^c2 B2 | %179
w: de bon coeur!|Mais al- lons, Cri- ton;|o- bé- is- sons- lui|de bon- ne grâ- ce,|et qu’on m’ap- por- te|
 AA B2) z2 z (B | Bd G2) z4 | z (G !courtesy!=F2 GBAA) | z (c_BF G2) z2 | z8 | z4 z2 z (B | %185
w: le poi- son, s’il|est broy- é|si- non, qu’il le broi- e|lui- mê- me... *||Cri-|
 Bd ^c2 dA G2 | ^FFGG AA B2) | z (B A2 AB A2) | (eBAG EG A2 | AB A2) (AAAA | AA A2) (AAAA | %191
w: ton fit sig- neà l’es- cla-|ve qui se te- nait au- près.|L’es- cla- ve sor- tit,|et a- près êt- re sor- ti|quel- que temps, il re- vint a-|vec ce- lui qui de- vait don-|
 A2 AA A2) z (A | AAAA AAAA | ^G2 ^F) z z4 | z8 | (=FGAB cded | c2) z (B A2) z (B | %197
w: ner le poi- son, qu’il|por- tait tout bro- yé dans u- ne|cou- pe.||Aus- si- tôt que So- cra- te le|vit: fort bien, mon|
 A!fermata!G)(AG A2) (cB | ABcB A2 A) z | z!mf! (BBB BBBB | B2 B2) z4 | z (eBB e2 e) z | %202
w: a- mi, lui dit- il mais que|faut- il que je fas- se?|Car c’est à toi à me l’ap-|pren- dre.|Pas au- tre cho- se,|
 z (^fgf e2 e) z | z (d!courtesy!=cB AA A2) | (ABcc d2) z (B | AAEE A2 AA | B2 Gc BdAA) | %207
w: lui dit cet hom- me,|que de te pro- me- ner|quand tu au- ras bu, jus-|qu’à ce que tu sen- tes tes|jam- bes ap- pe- san- ti- es,|
 GE=FF GG G2 | BG A2 EGEG | EGFA G2 G z | z8 | (EDGA B2) z (B | dAGB B2 B) z | z8 | z8 | %215
w: et a- lors de te cou- cher|sur ton lit; le poi- son a-|gi- ra de lui- mê- me.||Et en mê- me temps il|lui ten- dit la cou- pe...|||
 z (A G2 ^FBAE | E2 ^FA G2 E) z |!p! (AcA!>(!c BGGB!>)! |!pp! cd e2 ^fdBB | B2 Bd e2 ^c2) | z8 | %221
w: So- cra- te por- ta la|coupe à ses lè- vres,|et la but a- vec u- ne tran-|quil- li- té et u- ne dou-|ceur mer- veil- leu- se.||
 (Bd A2 G_Bcc | d_Bdd _ec f2 | c2) z (c !courtesy!=BAGG | FF) z2 z (Bcc | df c2 B)(BcA | %226
w: Jus- que- là nous a- vions eu|pres- que tous as- sez de for-|ce pour re- te- nir nos|lar- mes; mais en le|voy- ant boi- re, et a- près|
 GE F2) (EEGG | Ac _B2 A) z z2 | z6 z (^C | E2) (EE G2 AB | !courtesy!=c2) z (c cccc | G2 GG GGGc | %232
w: qu’il eut bu, nous n’en fû- mes|plus les maî- tres.|Pour|moi, mal- gré tous mes ef-|forts, mes lar- mes s’é- chap-|pè- rent a- vec tant d’a- bon-|
 B2 B) z (BBBB | ^cccc c2 ^dd | ^f2 BB B2 B) z | z (EG^F F2 GB | ^c2 cB d2 cc | ^cB G2) (AB c2 | %238
w: dan- ce que je me cou-|vris de mon man- teau pour pleu-|rer sur moi- mê- me;|car ce n’est pas le mal-|heur de So- cra- te que|je pleu- rais, mais le mien,|
 dBA^F EEEF | ^G2 G) z z4 | z4 (D^F^GG | ^G2 ^F2) (GEFG | A2) z (B ^ccB^G | ^F2 FF FF ^G2) | %244
w: en son- geant quel a- mi j’al- lais|per- dre...|...Ce- pen- dant So-|cra- te, qui se pro- me-|nait, dit qu’il sen- tait ses|jam- bes s’ap- pe- san- tir,|
 (AEE^F D2 EF | A) z (AB !courtesy!=c2 A!courtesy!=G | !courtesy!=F2 EE A2) z2 | z (ABB G2) (AA | %248
w: et il se cou- cha sur le|dos, com- me l’hom- me l’a-|vait or- don- né.|En mê- me temps le même|
 F2 G)(G EEEE | D2 EG G2) (A^c | e2 !courtesy!=ff eedd | !courtesy!=cc B2 AAGG | F2 EE A2 G) z | %253
w: hom- me qui lui a- vait don-|né le poi- son, s’ap- pro-|cha, et a- près a- voir e-|xa- mi- né quel- que temps ses|pieds et ses jam- bes,|
 z (AAA AA A2 | AA A2) (AAAA | GE^FA B2) z2 | z!ff! (BcA B) z z2 | z!pp!"^subito" (G^FA BG A2 | %258
w: il lui ser- ra le pied|for- te- ment, et lui de- man-|da s’il le sen- tait;|il dit que non.|Il lui ser- ra en- sui-|
 Be !courtesy!=c2 B) z z2 | (BBcc dd e2) | z (Bcc d2 !courtesy!=cA | G2 AA B2 !courtesy!=cA | %262
w: te les jam- bes;|et, por- tant ses mains plus haut,|il nous fit voir que le|corps se gla- çait et se|
 GG A2) z!mf! (d!courtesy!=cA | Be ^f2 d) z z (c | BG ^F2) (DDEE | GGAA B) z z (c | BG ^F2 GGAc | %267
w: rai- dis- sait; et le tou-|chant lui- mê- me, il|nous dit que, dès que le froid|ga- gne- rait le cœur, a-|lors So- cra- te nous quit- ter-|
 B2) z2 z4 | z8 | z (G^FF EG A2) | z (ecc B2) z2 | z (B c2 dage | ^fBce d2 B) z | %273
w: ait...||...A- lors se dé- cou- vrant,|So- cra- te dit:|Cri- ton, nous de- vons un|coq à Es- cu- la- pe;|
!f! (e^f d2 cc B2 |!>(! cc B2 A)!>)! z z2 | z8 | z (EEE EE A2) | z (EEE EE E2 | EE A2) z4 | %279
w: n’ou- blie pas d’ac- quit- ter|cet- te det- te...||Un peu de temps a- près|il fît un mou- ve- ment|con- vul- sif;|
 (EE E2 EEEE | E2 EE A2) z2 | (EE E2 EEEE) | z4 z!mf! (E E2 | EE E2 EE A2) | (EEEE E2 EE | %285
w: a- lors l’hom- me le dé- cou-|vrit tout- à- fait:|ses re- gards é- taient fi- xes.|Cri- ton,|s’en é- tant a- per- çu,|lui fer- ma la bouche et les|
!pp! A2-) A z z4 | z8 | z!mf! (B B2) z (BBB | B2 BB BBBB | BB B2) z4 | (eeee ee e2 | eeee A2 A) z | %292
w: yeux... *||...Voi- là, É- ché- cra-|tes, qu’el- le fut la fin de|no- trea- mi...|...du plus sage et du plus jus-|te de tous les hom- mes.|
 z8 | z8 |] %294
w: ||
V:2
!p!"_m.g.""_La basse en dehors" (([gb]2 [ac']2 [bd']2 [c'e']2)) | (([gb]2 [ac']2 [bd']2 [c'e']2)) | %2
 (([gb]2 [ac']2 [bd']2 [c'e']2)) | (([gb]2 [ac']2 [bd']2 [c'e']2)) |!p! ([gb]2 [^fa]2 [eg]2 [df]2 | %5
 [ce]2 [Bd]2 [Ac]2 [GB]2) |!mf! ([G,E]2 [A,^F]2) ([DF]B [CE]2) | %7
[K:bass] ([^F,D]2 [E,A,]2) (([A,D]2 [B,D]2)) |[K:treble]!pp! z6 z (^f | e2 B2 e2) z (^f | %10
 e2 B2 e2) z (^f | d2 B2 e2) z!mf! ((^f' | e'2 b2 e'2)) z ((^f' | e'2 b2 e'2)) z ((^f' | %14
 e'2 b2 e'2)) z ((^f' | e'2 b2 e'2)) z2 | !tenuto!.^F2 !tenuto!.E2 !tenuto!.D2 z2 | %17
 !tenuto!.^F2 !tenuto!.E2 !tenuto!.D2 z2 | !tenuto!.^F2 !tenuto!.E2 !tenuto!.D2 z2 | %19
 !tenuto!.^F2 !tenuto!.E2 !tenuto!.D2 z!f! (^F | E2 B,2 E2) z (^F | E2 B,2 E2) z (^F | %22
 E2 B,2 E2) z (^F | E2 B,2 E2) z2 |!>(! .[B,^FB] z .[EBe] z .[Aea]!>)! z .[dad'] z | %25
!mf! ([_Bd][!courtesy!=ce]"_(m.g.)"[d!courtesy!=f][ce]) ([Ac][Bd][ce][Bd]) | %26
 ([G_B][Ac][GB][Ac] [GB]) z z2 |[K:bass] !tenuto!.E2 !tenuto!.D2 !tenuto!.C2 z2 | %28
 !tenuto!.E2 !tenuto!.D2 !tenuto!.C2 z2 | !tenuto!.E2 !tenuto!.D2 !tenuto!.C2 z2 | %30
 !tenuto!.E2 !tenuto!.D2 !tenuto!.C2 z[K:treble] (=b | b2 ^c'2) (c'^f'b) z | (a2 e2 a3) z | %33
!f! !>!G2 !>!A2 !>!A2 !tenuto!.A2 |!p! ([dd']2"_subito" [cg]2 [Bb]2 [Ae]2) | %35
 ([Gg]2 [!courtesy!=F!courtesy!=c]2 [Ee]2 [DA]2) |!p!"_(sourd)" z8 | z8 | z8 | z8 | z8 | z8 | %42
!mf! (3(a^fd e) z (3(^c'af g) z |!f! !>!e'6 z2 |!mf! (3(g'e'!courtesy!=c' d') z (3(e'c'a b) z | %45
 (3(c'af g) z (3(afd e) z |[K:bass] !>![F,_B,DF]6 z2 |"_subito"!p! [F,_A,D]6 _B,2 | %48
!mf! [^F,CD]6 z2 | [E,!courtesy!=B,^CE]8- |!f! [E,B,CE]4- [E,B,CE][K:treble]G,A,B, | %51
 (!courtesy!=CE^FB FECE | ^FBFE CEFB | ^FECE FBFE | CE^FB FE) z[K:bass] (C | %55
 !courtesy!=F,A,B,E B,A,F,A, | B,EB,A, F,A,B,E |!>(! B,A,F,A, B,EB,A,!>)! |!p! F,A,B,E B,A,) z2 | %59
[K:treble]!mf! (a2 ^f2 e2 ^c2) | (d2 B2 A2 ^F2) | (G2 E2 D2 B,2) | z8 | z8 | (G2 A2) !>![Dd]3 z | %65
!pp! (FC_B,_A FCB,A | FC_B,_A FCB,A | FC_B,_A FCB,A | FC_B,_A FCB,A | FC_B,_A FCB,A | %70
 FC_B,_A FCB,A | FC_B,_A FCB,) z | z8 | z2!pp! (=A2 e2 d2) | ([c^f]2 [ea]2 [fb]2 [ad']2) | %75
 ([be']2 [ad']2 [gg']2) z2 |"_m.g." (_BAcA dA!<(!fA) | (_B!<)!!p!AcA dAfA) |!pp! (_BAcA dAfA) | %79
 (_BA"_rall."cA dAf z) |!p! (AG_BG cGdG) | (AG_BG cGdG) | (AG_BG cGdG) | (AG_BG cGd z) | %84
!f! .A z .d z .e z .d z |!p! .A z"_subito" .d z .e z .d z |!mf! (^F,G,A,B, CDE^F | GABc d) z .D z | %88
 .c z .C z .B z .B, z | !>!D4 !>!E4 | !>!^F4- F3 z | (be' a2) (gc' ^f2) | %92
 (ea d2) (cf !courtesy!=B2) |[K:bass] !>!D6 z2 | !>!G,6 z2 |[K:treble]!p! z8 |!mf!"_tres lent" z8 | %97
!f! z8 | z8 | z8 | x8 |!p!"_poco a poco a tempo" z8 | z8 | z8 | z8 | z8 | z8 | z8 | z8 | %109
"_espressif" z4 (CD_EF | GA_Bc d_e f2) |!f!"_lent" !>!A2 !>!!courtesy!=B2 !>!B2 !tenuto!.B2 | %112
 !>!G2 !>!A2 !>!A2 !tenuto!.A2 | !>!D2 !>!E2 !>!E2 !tenuto!.E2 | %114
[K:bass] !>!D2 !>!C2 !tenuto!.D3[K:treble]!mf! (e | e2 ^f2) (fbe) z | (d2 A2 d3) z |!f! !>!c6 z2 | %118
!mf! !>!c6 z2 | !>!c6 z2 |!p! !>!c6 z2 |!f!!8va(! (3(b'^g'e' ^f') z (3(g'e'^c' ^d') z!8va)! | %122
 (3(e'^c'a b) z (3(c'a^f ^g) z | %123
[K:bass]!p! !tenuto!.[^G,B,^D]2{/^F} !tenuto!.[G,^CE]2 !tenuto!.[^F,G,B,]2{/^D} !tenuto!.[E,G,C]2 | %124
 !tenuto!.[!courtesy!=D,^F,B,]2 !tenuto!.[^C,E,A,]2 !tenuto!.[C,F,A,]2 !tenuto!.[E,^G,B,]2 | %125
[K:treble] ([!courtesy!=ce][d^f][e!courtesy!=g][df]) ([Bd][ce][df][ce]) | %126
 ([Ac][Bd][Ac][Bd] [Ac]) z z2 | z8 | ([B,D][^CE][B,D][CE] [B,D]) z z!mf! (^c' | %129
 b2 ^f2 b) z z (^c' | b2 ^f2 b) z z (^c' | b2 ^f2 b) z z!p! (^c' | b2 ^f2 b) z z!pp! (^c | %133
 B2 ^F2 B2) z (^c | B2 ^F2 B2) z (^c | B2 ^F2 B2) z (^c | B2 ^F2 B2) z z | %137
 ([EG][^FA][EG][FA] [EG][FA]) z z | ([EG][^FA][EG][FA] [EG][FA]) z z | %139
 ([EG][^FA][EG][FA] [EG][FA]) z z | ([EG][^FA][EG][FA] [EG][FA]) z z |!f! z8 |!mf! z8 |!p! z8 | %144
!pp! z8 |!pp! (A^GBG"_suivre le chant" ^cGeG) | (A^GBG ^cGeG) | (A^GBG ^cGeG) | (A^GBG ^cGeG) | %149
 (^G^FAF BF^cF) |"_a tempo" (^G^FAF BF^cF) | (^G^FAF BF^cF) | (^G^FAF BF^cF) | %153
!f! !tenuto!.[B,E!courtesy!=GB]2!<(! !tenuto!.[!courtesy!=C^FA!courtesy!=c]2 !tenuto!.[DGBd]2!<)!!ff! !breath!!tenuto!.[EAce]2 | %154
"_subito"!p! (([gb]2 [ac']2 [bd']2 [c'e']2)) | (([gb]2 [ac']2 [bd']2 [c'e']2)) | %156
 (([gb]2 [ac']2 [bd']2 [c'e']2)) | ([gb]2 [^fa]2 [eg]2 [df]2 | [ce]2 [Bd]2 [Ac]2 [GB]2) | %159
!mf! ([G,E]2 [A,^F]2) (FB E2) |[K:bass] ([^F,D]2 [G,E]2) ([A,D]2 [B,D]2) |[K:treble]!p! z4 z3 (^d | %162
 ^c2 ^G2 c2) z (^d | ^c2 ^G2 c2) z (^d | ^c2 G2 c2) z z | z6 z (B | A2 D2 A2) z (B | %167
 A2 D2 A2) z (B | A2 D2 A2) z2 |!mf! z8 | z8 | z8 | %172
!f! !tenuto!.[EAce]2 !tenuto!.[FBdf]2 !tenuto!.[Gceg]2 !tenuto!.[Adfa]2 | %173
 !tenuto!.[A,DFA]2 !tenuto!.[_B,EG_B]2 !tenuto!.[CFAc]2 !tenuto!.[DGBd]2 |"_rall." !breath!z8 | %175
!p! ([A,D]2 [!courtesy!=B,!courtesy!=E]2 [^C^F]2 [DG]2) | ([A,D]2 [B,E]2 [^C^F]2 [DG]2) | %177
 ([A,D]2 [B,E]2 [^C^F]2 [DG]2) | ([A,D]2 [B,E]2 [^C^F]2 [DG]2) | !>!^c2 !>!d2 !>!e2 !>!^f2 | %180
 !>!^F2 !>!G2 !>!A2 !>!B2 | !>!B,2 !>!C2 !>!D2 !>!E2 | %182
[K:bass] !>!E,2 !>!F,2 !>!G,2 !>!!breath!A,2 |[K:treble] z8 | z8 | z8 | z8 |!pp! z8 | z8 | z8 | %190
 z8 | z8 | z8 | ([d^f][e^g][fa][eg]) ([^ce][df][eg][df]) | ([Bd][^ce][Bd][ce] [Bd]) z z2 | %195
 ([!courtesy!=FA]"_espressif"[!courtesy!=GB][A!courtesy!=c][GB] [FA][GB][Ac][GB] | %196
 [FA][GB][Ac][GB] [FA][GB][Ac][GB] | [FA][GB][Ac][GB] [FA][GB][Ac][GB] | %198
 [FA][GB][Ac][GB] [FA]2) z z |!mf! !>![Aa]6 z z | !>![Aa]6 z z | !>![Aa]6 z z | !>![Aa]6 z z | %203
 d2 !>![Dd]4 z z | !>![Dd]6 z z | !>![Dd]6 z z | !>![Dd]6 z z | !>![G,G]6 z z | !>![G,G]6 z z | %209
 !>![G,G]6 z z | !>![G,G]6 z (^F |"_accel." E2!<(! B,2 E2) z!<)! (^F | E2 B,2"_rit." E2) z!f! (^F | %213
"_lent" E2 B,2 E2) z"_subito"!p! (^F |"_plus lent" E2 B,2 E2) z!mf! (A | A2 B2) (BeA) z | %216
 (G2 D2 G3) z |!p! (c4 B2 e2) |!pp! (G4 ^F2 B2) | (D4 ^C2 ^F2) | %220
!f! !tenuto!.[G,!courtesy!=CG]2[K:bass] !tenuto!.[E,A,C]2{/E} !tenuto!.[D,A,D]2 !tenuto!.[D,G,B,]2 | %221
[K:treble]!p! (3(afd e) z (3(fd_B c) z | (3(d_BG A) z (3(BG_E F) z | %223
 (3CDE (3FGA (3!courtesy!=Bcd e z |!mf! ([ff']2 [_e_b]2 [dd']2 [cg]2) | %225
 ([_B_b]2 [_A_e]2 [Gg]2 [Fc]2) | ([cc']2 [_Bf]2 [Aa]2 [Gd]2) | ([Ff]2 [_E_B]2 [Dd]2 [CG]2) | %228
 (3(A^FD E) z (3(FDB, ^C) z |[K:bass]!p! (3(E^CA, B,) z (3(DB,G, A,) z | %230
[K:treble]!f!"_subito\n" !>![G,!courtesy!=CEG]6 z2 | (!>![G,_B,E]6 C2 | !>![^G,DE]6) z2 | %233
 [^F,^C^D^F]8- | [F,CDF]4- [F,CDF]=CB,A, |!p! (!courtesy!=G,"_léger"B,^C^F CB,G,B, | %236
 ^C^FCB, G,B,CF | ^CB,G,B, C^FCB, | G,B,^C^F CB,) z (E | D^F^G^c GFDF | ^G^cG^F DFGc | %241
 ^G^FDF G^cGF | D^F^G^c GF) z2 |!mf! (e2 ^c2 B2 ^G2) | (!courtesy!=g2 e2 !courtesy!=d2 B2) | %245
 (!courtesy!=c'2 a2 g2 e2) | z8 | z8 | z8 | (^fb e2) (dg ^c2) | (Be A2) (Gc ^F2) | !>!A4- A2 z2 | %252
 !>!D4- D2 z2 | z8 |!<(! z8!<)! | z8 | z8 | %257
"^m.d."!pp! ([egb]2 [^fac']2 [gbd']2 [a!courtesy!=c'e']2) | %258
 ([egb]2 [^fac']2 [gbd']2 [a!courtesy!=c'e']2) | ([egb]2 [^fac']2 [gbd']2 [a!courtesy!=c'e']2) | %260
 ([egb]2 [^fac']2 [gbd']2 [a!courtesy!=c'e']2) | ([EGB]2 [^FAc]2 [GBd]2 [A!courtesy!=ce]2) | %262
 ([EGB]2 [^FAc]2 [GBd]2 [A!courtesy!=ce]2) | ([EGB]2 [^FAc]2 [GBd]2 [A!courtesy!=ce]2) | %264
 ([EGB]2!>(! [^FAc]2 [GBd]2 [A!courtesy!=ce]2)!>)! |!pp! z8 | z8 | (G2 ^F4 E2) | (G2 ^F4 E2) | z8 | %270
 z8 | z8 | z8 |[K:bass] !>![^F,^F]4- [F,F]2 z2 | !>![D,D]4- [D,D]2 z2 | !>![E,E]4- [E,E]2 z2 | %276
 !>![E,E]4- [E,E]2 z2 | !>![E,E]4- [E,E]2 z2 | !>![E,E]4- [E,E]2 z2 |"_lent" !>![E,E]4- [E,E]2 z2 | %280
 !>![E,E]4- [E,E]2 z2 | !>![E,E]4- [E,E]2 z2 | !>![E,E]4- [E,E]2 z2 |!mf! !>![E,E]4- [E,E]2 z2 | %284
 !>![E,E]4-!>(! [E,E]2 z2!>)! |!pp! !>![E,E]4- [E,E]2 z2 | !>![^F,^F]4- [F,F]2 z2 | %287
!mf! !>![^F,^F]4- [F,F]2 z2 | !>![^F,^F]4- [F,F]2 z2 | !>![^F,^F]4- [F,F]2 z2 | %290
 !>![E,E]4- [E,E]2 z2 | !>![E,E]4- [E,E]2 z2 | %292
[K:treble]"^ralentir de plus en plus" !>![B,B]4- [B,B]2 z2 | !>![B,B]4- [B,B]2 z2 |] %294
V:3
 (e2 ^f2 g2 a2) | (e2 ^f2 g2 a2) | (e2 ^f2 g2 a2) | (e2 ^f2 g2 a2) | (e2 d2 c2 B2 | A2 G2 ^F2 E2) | %6
 B,C D2 ((B,2 G,2)) |[K:bass] A,B, C2 (D,E, ^F,2) |[K:treble] (DCEC ^FCGC | DCEC ^FCGC | %10
 DCEC ^FCGC | DCEC ^FC) z (a | a2 a2 a2) z (a | a2 a2 a2) z (a | a2 a2 a2) z (a | a2 a2 a2) x2 | %16
 (CA,B,G, A,^F,) x2 | (CA,B,G, A,^F,) x2 | (CA,B,G, A,^F,) x2 | (CA,B,G, A,^F,) x (B, | %20
 [A,D]2 [G,A,]2 [^F,B,]2) x (B, | [A,D]2 [G,A,]2 [^F,B,]2) x (B, | [A,D]2 [G,A,]2 [^F,B,]2) x (B, | %23
 [A,D]2 [G,A,]2 [^F,B,]2) x2 | z4 (3^CDE ^F z | z2 (DE F2) (CD | E)(FEF E) z z2 | %27
[K:bass] (_B,G,A,F, G,E,) x2 | (_B,G,A,F, G,E,) x2 | (_B,G,A,F, G,E,) x2 | %30
 (_B,G,A,F, G,E,) z[K:treble] (^f | ^g2 a2) (g^ff)f | (^f2 e2 !courtesy!=def) z | %33
 z [CE] z [C!courtesy!=F] z [DF] [CE]2 | ([^FA]2 [EG]2 [^DF]2 [^CE]2) | x8 | x8 | x8 | x8 | x8 | %40
 x8 | x8 | (A2 B) z (^c2 d) z | z2 ([da]2!>(! [eb]2 [^f!courtesy!=c']2)!>)! | %44
 (g2 a) z (e2 !courtesy!=f) z | (c2 d) z (A2 B) z |[K:bass] x8 | x8 | x8 | x8 | x5[K:treble] x3 | %51
 x8 | x8 | x8 | x7[K:bass] x | x8 | x8 | x8 | x8 |[K:treble] (B4 b2 ^f2) | (E4 e2 B2) | %61
 (A,4 A2 E2) | x8 | x8 | !>![B,D]4 !>![AB]3 z | x8 | x8 | x8 | x8 | x8 | x8 | x8 | x8 | %73
 x2 (E2 E^F G2) | ([EA]2 [^FB]2 [Ad]2 [Be]2) | ([eg]2 [d^f]2 [ce]2) z2 | (_EDFD GD_B) z | %77
 (_EDFD GD_B) z | (_EDFD GD_B) z | (_EDFD GD_B) z | x8 | x8 | x8 | x8 | !>!D6 z2 | !>!D6 z2 | x8 | %87
 x8 | x8 | x2 [A,A] z x2 [B,B] z | x2 [Cc] z x2 [Dd] z | (e2 !courtesy!=f2) (c2 d2) | %92
 (A2 _B2) (F2 G2) |[K:bass] .C.A,.G,.C .A,.G,.C z | .F,.D,.C,.F, .D,.C,.F, z |[K:treble] x8 | x8 | %97
 x8 | x8 | x8 | x8 | x8 | x8 | x8 | x8 | x8 | x8 | x8 | x8 | x8 | D_EFG A_B c2 | %111
 z [D^F] z [DG] z [=EG] [DF]2 | z [CE] z [CF] z [DF] [CE]2 | z [G,B,] z [G,C] z [A,C] [G,B,]2 | %114
[K:bass] z [G,B,] z [E,G,] !tenuto!.[^F,A,]3[K:treble] (B | ^c2 d2) (cBB)B- | %116
 (B2 A2 !courtesy!=GAB) z | z2 [_B,F]2 [CG]2 [D_A]2 | z2 [_B,F]2 [CG]2 [D_A]2 | %119
 z2 [_B,F]2 [CG]2 [D_A]2 | z2 [_B,F]2 [CG]2 [D_A]2 |!8va(! (b2 ^c') z (^g2 a) z!8va)! | %122
 (e2 ^f) z (^c2 ^d) z |[K:bass] x8 | x8 |[K:treble] z2 (E^F G2) (DE | ^F)(GFG F) z z2 | x8 | %128
 x7 (^f | e2 B2 e) x2 (^f | e2 B2 e) x2 (^f | e2 B2 e) x2 (^f | e2 B2 e) x2 (E | E2 E2 E2) x (E | %134
 E2 E2 E2) x (E | E2 E2 E2) x (E | E2 E2 E) z x2 | x8 | x8 | x8 | x8 | x8 | x8 | x8 | x8 | %145
 (E^CEC ^FCA) z | (E^CEC ^FCA) z | (E^CEC ^FCA) z | (E^CEC ^FCA) z | x8 | x8 | x8 | x8 | x8 | %154
 (e2 ^f2 g2 a2) | (e2 ^f2 g2 a2) | (e2 ^f2 g2 a2) | (e2 d2 c2 B2 | A2 G2 ^F2 E2) | %159
 B,C D2 [B,D]2 [G,C]2 |[K:bass] A,B, C2 D,E, ^F,2 |[K:treble] (B,A,^CA, ^DA,EA, | %162
 B,A,^CA, ^DA,EA, | B,A,^CA, ^DA,EA, | B,A,^CA, ^DA,E) z | x8 | x8 | x8 | x8 | x8 | x8 | x8 | x8 | %173
 x8 | x8 | x8 | x8 | x8 | x8 | z [Aa] z [Bb] z [^c^c'] z [dd'] | z [Dd] z [Ee] z [^F^f] z [Gg] | %181
 z [G,G] z [A,A] z [B,B] z [Cc] |[K:bass] z [C,C] z [D,D] z [E,E] z [F,F] |[K:treble] x8 | x8 | %185
 x8 | x8 | x8 | x8 | x8 | x8 | x8 | x8 | z2 (^F^G A2) (EF | ^G)(AGA G) z z2 | x8 | x8 | x8 | %198
 x7 (^f | e2 B2 e2) x (^f | e2 B2 e2) x (^f | e2 B2 e2) x (^f | e2 B2 e2) x (B | A2 E2 A2) x (B | %204
 A2 E2 A2) x (B | A2 E2 A2) x (B | A2 E2 A2) x (E | D2 A,2 D2) x (E | D2 A,2 D2) x (E | %209
 D2 A,2 D2) x (E | D2 A,2 D2) x (B, | [A,D]2 [G,A,]2 [^F,B,]2) x (B, | %212
 [A,D]2 [G,A,]2 [^F,B,]2) x (B, | [A,D]2 [G,A,]2 [^F,B,]2) x (B, | [A,D]2 [G,A,]2 [^F,B,]2) x (E | %215
 ^F2 G2) (FEE)(E | E2 D2 !courtesy!=CDE) z | (!courtesy!=FG!>(! A2 G2 G2)!>)! | (CD E2 D2 D2) | %219
 (G,A, B,2 A,2 A,2) | x2[K:bass] x6 |[K:treble] (B2 A) z (G2 F) z | (E2 D) z (C2 _B,) z | %223
 x2 [A,C] z [DF] z [GB] z | ([Ac]2 [G_B]2 [^FA]2 [=EG]2) | %225
 ([D!courtesy!=F]2 [C_E]2 [!courtesy!=B,D]2 [A,C]2) | %226
 ([!courtesy!=EG]2 [DF]2 [^CE]2 [!courtesy!=B,D]2) | x8 | !>!A, z !>!A, z !>!^F, z !>!F, z | %229
[K:bass] !>!E, z !>!E, z !>!D, z !>!D, z |[K:treble] x8 | x8 | x8 | x8 | x8 | x8 | x8 | x8 | x8 | %239
 x8 | x8 | x8 | x8 | (^F4 ^f2 ^c2) | (A4 a2 e2) | (d4 d'2 a2) | x8 | x8 | x8 | (B2 c2) (G2 A2) | %250
 (E2 !courtesy!=F2) (C2 D2) | .G.E.D.G .E.D.G z | .C.A,.G,.C .A,.G,.C z | x8 | x8 | x8 | x8 | %257
 !tenuto!.d4- d2 !tenuto!.^c2 | !tenuto!.d4 !tenuto!.^c4 | !>!d8 | !tenuto!.D4- D2 z2 | x8 | x8 | %263
 x8 | x8 | x8 | x8 | [G,B,]2 [A,C]2 [B,D]2 [CE]2 | [G,B,]2 [A,C]2 [B,D]2 [CE]2 | x8 | x8 | x8 | %272
 x8 |[K:bass] .E2!>(! .D2 .C2!>)! .B,2 | .C2 .B,2 .A,2 .G,2 | %275
 .[E,A,]2!>(! .[E,A,]2 .[E,A,]2 .[E,A,]2!>)! | .[E,A,]2!>(! .[E,A,]2 .[E,A,]2 .[E,A,]2!>)! | %277
 .[E,A,]2"_accel." .[E,A,]2 .[E,A,]2 .[E,A,]2 | .[E,A,]2 .[E,A,]2 .[E,A,]2 .[E,A,]2 | %279
 .[E,A,]2 .[E,A,]2 .[E,A,]2 .[E,A,]2 | .[E,A,]2 .[E,A,]2 .[E,A,]2 .[E,A,]2 | %281
 .[E,A,]2!pp! .[E,A,]2 .[E,A,]2 .[E,A,]2 | .[E,A,]2"_a tempo" .[E,A,]2 .[E,A,]2 .[E,A,]2 | %283
 .[E,A,]2 .[E,A,]2 .[E,A,]2 .[E,A,]2 | .[E,A,]2 .[E,A,]2 .[E,A,]2 .[E,A,]2 | %285
 .[E,A,]2 .[E,A,]2 .[E,A,]2 .[E,A,]2 | .[^F,B,]2 .[F,B,]2 .[F,B,]2 .[F,B,]2 | %287
 .[^F,B,]2 .[F,B,]2 .[F,B,]2 .[F,B,]2 | .[^F,B,]2 .[F,B,]2 .[F,B,]2 .[F,B,]2 | %289
 .[^F,B,]2 .[F,B,]2 .[F,B,]2 .[F,B,]2 | .[E,A,]2 .[E,A,]2 .[E,A,]2 .[F,A,]2 | %291
 .[E,A,]2 .[E,A,]2 .[E,A,]2 .[E,A,]2 |[K:treble] .[B,^E]2 .[B,^F]2 .[B,E]2 .[B,F]2 | %293
 .[B,^E]2 .[B,^F]2 .[B,E]2 .[B,F]2 |] %294
V:4
 z8 | z8 | z8 | z8 | z8 | z8 | ([E,,E,]2 [D,,D,]2) ([B,,,B,,]2 [C,,C,]2) | %7
 ([D,,D,]2 [A,,,A,,]2) ([^F,,,^F,,]2 [B,,,B,,]2) | z8 | z8 | z8 | z6 z[K:treble] ((d | %12
 d2 d2 d2)) z ((d | d2 d2 d2)) z ((d | d2 d2 d2)) z ((d | d2 d2 d2)) z[K:bass] ([^F,,^F,] | %16
 [E,,E,]2 [B,,,B,,]2 [E,,E,]2) z ([^F,,^F,] | [E,,E,]2 [B,,,B,,]2 [E,,E,]2) z ([^F,,^F,] | %18
 [E,,E,]2 [B,,,B,,]2 [E,,E,]2) z ([^F,,^F,] | [E,,E,]2 [B,,,B,,]2 [E,,E,]2) z ([A,,,A,,] | %20
 [B,,,B,,]2 [C,,C,]2 [D,,D,]2) z ([A,,,A,,] | [B,,,B,,]2 [C,,C,]2 [D,,D,]2) z ([A,,,A,,] | %22
 [B,,,B,,]2 [C,,C,]2 [D,,D,]2) z ([A,,,A,,] | [B,,,B,,]2 [C,,C,]2 [D,,D,]2) (3z B,,^C, | %24
 (3(D,E,^F, (3G,A,B,) z4 | z8 | z6 z ([E,,E,] | [D,,D,]2 [A,,,A,,]2 [D,,D,]2) z ([E,,E,] | %28
 [D,,D,]2 [A,,,A,,]2 [D,,D,]2) z ([E,,E,] | [D,,D,]2 [A,,,A,,]2 [D,,D,]2) z ([E,,E,] | %30
 [D,,D,]2 [A,,,A,,]2 [D,,D,]2) z[K:treble] (^d | e2 A2) (B^c^d) z | (^c2 B2 A3) z | %33
[K:bass] [!courtesy!=C,,!courtesy!=C,] z [!courtesy!=F,,!courtesy!=F,] z [D,,D,] z !tenuto!.[A,,,A,,]2 | %34
 z8 | ([B,!courtesy!=D]2 [A,=C]2 [^G,B,]2 [^F,A,]2) | (DA,G,F DA,G,F | DA,G,F DA,G,F | %38
 DA,G,F DA,G,F | DA,G,F DA,G,F | DA,G,F DA,G,F | DA,G,F DA,G,) z | %42
 ([^F,A,D]2 [G,B,E]) z ([A,^C^F]2 [B,DG]) z |[K:treble] z2 (^F2 G2 A2) | %44
 ([EG!courtesy!=c]2 [!courtesy!=FAd]) z ([CEA]2 [DFB]) z | %45
 ([A,CF]2 [B,DG]) z[K:bass] ([F,A,D]2 [G,B,E]) z | .C, z .C,, z .C, z .C,, z | %47
 .C, z .C,, z!<(! .C, z .C,,!<)! z | .C, z .C,, z .C, z .C,, z | %49
 .B,, z!<(! .B,,, z .B,, z .B,,,!<)! z | .A,, z .A,,, z .A,, z z2 | %51
"_léger" .[^F,,^F,]2 .[A,,A,]2 .[B,,B,]2 .[A,,A,]2 | .[D,D]2 .[D,,D,]2 !>![E,,E,]3 .[^F,,^F,] | %53
 .[A,,A,]2 .[G,,G,]2 .[B,,B,]2 .[B,,,B,,]2 | .[C,,C,]2 .[D,,D,]2 .[E,,E,]2 .[^F,,^F,]2 | %55
 .[B,,,B,,]2 .[D,,D,]2 .[E,,E,]2 .[D,,D,]2 | .[G,,G,]2 .[G,,,G,,]2 !>![A,,,A,,]3 .[B,,,B,,] | %57
 .[D,,D,]2 .[C,,C,]2 .[E,,E,]2 .[E,,,E,,]2 | .[F,,,F,,]2 .[G,,,G,,]2 .[A,,,A,,]2 .[B,,,B,,]2 | %59
[K:treble] (^F2 ^G2 A2 G2) |[K:bass] (B,2 ^C2 D2 C2) | (E,2 ^F,2 G,2 F,2) | (A,2 B,2) (A,2 B,2) | %63
 (A,2 B,2) (D2 E2) | ([G,,G,]2 [A,,A,]2) !>![^F,A,B,]3 ([E,,E,] | %65
 (!>![_E,,_E,]2) z .[E,,E,]) !>![E,,E,]2 z z | !>![_E,,_E,]2 z .[E,,E,] !>![E,,E,]2 z z | %67
 !>![_E,,_E,]2 z .[E,,E,] !>![E,,E,]2 z z | !>![_E,,_E,]2 z .[E,,E,] !>![E,,E,]2 z z | %69
 !>![_E,,_E,]2 z .[E,,E,] !>![E,,E,]2 z z | !>![_E,,_E,]2 z .[E,,E,] !>![E,,E,]2 z z | %71
 !>![_E,,_E,]2 z .[E,,E,] !>![E,,E,]2 z z | ([D,F,][E,G,][F,_A,][G,_B,] [=A,C][=B,=D][C_E][=DF] | %73
 [=EG]2) (C2 B,C D2) | z8 | z8 | z8 | z8 | z8 | z8 | (_E,D,F,D, G,D,A,) z | (_E,D,F,D, G,D,A,) z | %82
 (_E,D,F,D, G,D,A,) z | (_E,D,F,D, G,D,A,) z | .A,, z .D, z .E, z .D, z | %85
 .A,, z .D, z .E, z .D, z | .A,, z .D, z .E, z .D, z | .A,, z .D, z .E, z .D, z | %88
 .A,, z .D, z .E, z .D, z | .A,, z .D, z .E, z .D, z | .A,, z .D, z .E, z .D, z | %91
[K:treble] .d2 .c2 .B2 .A2 | .G2 .F2[K:bass] .[A,E]2 .[G,D]2 | %93
 .[F,,F,]2 .[E,,E,]2 .[D,,D,]2 .[C,,C,]2 | .[_B,,,_B,,]2 .[A,,,A,,]2 .[G,,,G,,]2 .[F,,,F,,]2 | %95
 ([F,A,]2 [G,_B,]2 [A,C]2 [B,D]2) | ([F,A,]2 [G,_B,]2!<(! [A,C]2 [B,D]2)!<)! | %97
 ([F,A,]2 [G,_B,]2 [A,C]2 [B,D]2) | ([F,A,]2 [G,_B,]2 [A,C]2 [B,D]2) | %99
 ([F,A,]2 [G,_B,]2!>(! [A,C]2 [B,D]2) | ([F,A,]2 [G,_B,]2!>)!!pp! [A,C]2 [B,D]2) | %101
 (A,E,D,C A,E,D,C | A,E,D,C A,E,D,C | A,E,D,C A,E,D,C | A,E,D,C A,E,D,C | A,E,D,C A,E,D,C | %106
 A,E,D,C A,E,D,C | A,E,D,C A,E,D,C | A,E,D,C A,E,D,) z | F,G,A,_B, G,A,B,C | z8 | %111
 [D,,D,] z [G,,G,] z [!courtesy!=E,,!courtesy!=E,] z !tenuto!.[B,,,B,,]2 | %112
 [C,,C,] z [!courtesy!=F,,!courtesy!=F,] z [D,,D,] z !tenuto!.[A,,,A,,]2 | %113
 [G,,,G,,] z [C,,C,] z [A,,,A,,] z !tenuto!.[E,,,E,,]2 | %114
 [G,,,G,,] z [A,,,A,,] z [D,,,D,,]3[K:treble] (^G | A2 D2) (E^F^G) z | (^F2 E2 D3) z | %117
[K:bass] z2 (D,2 _E,2 F,2) | z2 (D,2 _E,2 F,2) | z2 (D,2 _E,2 F,2) | z2 (D,2 _E,2 F,2) | %121
[K:treble] ([^G!courtesy!=B!courtesy!=e]2 [A^c^f]) z ([EGc]2 [^FA^d]) z | %122
 ([^CEA]2 [^D^FB]) z ([A,CF]2 [B,D^G]) z | %123
[K:bass] !tenuto!.[^G,,,^G,,]2 !tenuto!.[^C,,^C,]2 !tenuto!.[^D,,^D,]2 !tenuto!.[C,,C,]2 | %124
 !tenuto!.[B,,,B,,]2 !tenuto!.[A,,,A,,]2 !tenuto!.[^F,,,^F,,]2 !tenuto!.[E,,,E,,]2 | z8 | z8 | %127
 (E,^F,G,A, G,F,E,) z | z (A,G,A, G,) z z[K:treble] (^c | d2 A2 G) z z (^c | d2 A2 G) z z (^c | %131
 d2 A2 G) z z (^c | d2 A2 G) z z[K:bass] (A, | A,2 A,2 A,2) z (A, | A,2 A,2 A,2) z (A, | %135
 A,2 A,2 A,2) z (A, | A,2 A,2 A,2) z (^C | B,2 ^F,2 B,2) z (^C | B,2 ^F,2 B,2) z (^C | %139
 B,2 ^F,2 B,2) z (^C | B,2 ^F,2 B,2) z z | z2 [E,A,E] z z2 [E,A,E] (z | %142
 z2"^rit." [E,A,E] z z2) [E,A,E] (z | z2"^tres lent" [E,A,E] z z2) [E,A,E] (z | %144
 z2 [E,A,E] z z2) [E,A,E] z | z8 | z8 | z8 | z8 | (D,^C,E,C, ^F,C,^G,) z | (D,^C,E,C, ^F,C,^G,) z | %151
 (D,^C,E,C, ^F,C,^G,) z | (D,^C,E,C, ^F,C,^G,) z | %153
 z !tenuto!.[E,,E,]2 !tenuto!.[D,,D,]2 !tenuto!.[=C,,=C,]2 !breath!!tenuto!.[B,,,B,,] | z8 | z8 | %156
 z8 | z8 | z8 | ([E,,E,]2 [D,,D,]2) ([B,,,B,,]2 [C,,C,]2) | %160
 ([D,,D,]2 [A,,,A,,]2) ([^F,,,^F,,]2 [B,,,B,,]2) | z8 | z8 | z8 | z8 | %165
 (G,!courtesy!=F,A,F, B,F,!courtesy!=CF, | G,F,A,F, B,F,CF, | G,F,A,F, B,F,CF, | %168
 G,F,A,F, B,F,C) z | %169
 !tenuto!.[D,F,A,D]2 !tenuto!.[E,G,B,E]2 !tenuto!.[F,A,CF]2 !tenuto!.[G,B,DG]2 | %170
 !tenuto!.[D,F,A,D]2 !tenuto!.[E,G,B,E]2!<(! !tenuto!.[F,A,CF]2 !tenuto!.[G,B,DG]2 | %171
 !tenuto!.[D,F,A,D]2 !tenuto!.[E,G,B,E]2 !tenuto!.[F,A,CF]2 !tenuto!.[G,B,DG]2!<)! | %172
 z !tenuto!.[A,,A,]2 !tenuto!.[G,,G,]2 !tenuto!.[F,,F,] !tenuto!.[E,,E,]2 | %173
 z !tenuto!.[D,,D,]2 !tenuto!.[C,,C,]2 !tenuto!.[_B,,,_B,,] !tenuto!.[A,,,A,,]2 | %174
!<(! !tenuto!.[D,G,_B,D]2 !tenuto!.[_E,G,B,_E]2 !tenuto!.[F,B,DF]2 !breath!!tenuto!.[G,CEG]2!<)! | %175
 (^F,2 G,2 A,2 B,2) | (^F,2 G,2 A,2 B,2) | (^F,2 G,2 A,2 B,2) | (^F,2 G,2 A,2 B,2) | %179
[K:treble] (^F2 G2 A2 B2) | (B,2 !courtesy!=C2 D2 E2) |[K:bass] (E,2 !courtesy!=F,2 G,2 A,2) | %182
 (A,,2 _B,,2 C,2 !breath!D,2) | %183
"_m.g."!p! (([!courtesy!=D,^F,]2"_en dehors" [E,G,]2 [F,A,]2 [G,B,]2)) | %184
 (([D,^F,]2 [E,G,]2 [F,A,]2 [G,B,]2)) | (([D,^F,]2 [E,G,]2 [F,A,]2 [G,B,]2)) | %186
 (([D,^F,]2 [E,G,]2 [F,A,]2 [G,B,]2)) | (EB,A,G EB,A,G | EB,A,G EB,A,G | EB,A,G EB,A,G | %190
 EB,A,G"^accel." EB,A,G | EB,A,G EB,A,G | EB,A,G EB,A,) z | z8 | z8 | z2 (A,B, D2) (B,C | %196
 E2) (A,B, D2) (B,C | E2) (A,B, D2) (B,C | E2) (A,B, D2) z2 |[K:treble] !>!A,6 z2 | !>!A,6 z2 | %201
 !>!A,6 z2 | !>!A,6 z2 |[K:bass] !>!D,6 z2 | !>!D,6 z2 | !>!D,6 z2 | !>!D,6 z2 | !>!G,,6 z2 | %208
 !>!G,,6 z2 | !>!G,,6 z2 | !>!G,,6 z ([A,,,A,,] | [B,,,B,,]2 [C,,C,]2 [D,,D,]2) z ([A,,,A,,] | %212
 [B,,,B,,]2 [C,,C,]2 [D,,D,]2) z ([A,,,A,,] | [B,,,B,,]2 [C,,C,]2 [D,,D,]2) z ([A,,,A,,] | %214
 [B,,,B,,]2 [C,,C,]2 [D,,D,]2) z (^C | D2 G,2) (A,B,^C) z | (B,2 A,2 G,3) z | (C4 D2 B,2) | %218
 (G,4 A,2 ^F,2) | (D,4 E,2 ^C,2) | %220
 !tenuto!.[E,,,E,,]2 !tenuto!.[A,,,A,,]2 !tenuto!.[!courtesy!=F,,,!courtesy!=F,,]2 !tenuto!.[G,,,G,,]2 | %221
 ([DF]2 [CE]) z ([_B,D]2 [A,C]) z | ([G,_B,]2 [F,A,]) z ([_E,G,]2 (3F,A,)=B, | %223
 [!courtesy!=E,G,] z z2 z4 | z8 | z8 | z8 | %227
 ([A,!courtesy!=C]2 [G,_B,]2 [^F,A,]2 [!courtesy!=E,G,]2) | %228
 ([D,,D,]2 [E,,E,]) z ([B,,,B,,]2 [^C,,^C,]) z | ([D,,D,]2 [E,,E,]) z ([B,,,B,,]2 [^C,,^C,]) z | %230
 .D, z .D,, z .D, z .D,, z |"^subito\n"!p! .D, z .D,, z .D, z .D,, z | .D, z .D,, z .D, z .D,, z | %233
 .^C, z .^C,, z .C, z .C,, z | .B,, z .B,,, z .B,, z z2 | %235
 .[^C,,^C,]2 .[E,,E,]2 .[^F,,^F,]2 .[E,,E,]2 | .[A,,A,]2 .[A,,,A,,]2 !>![B,,,B,,]3 [^C,,^C,] | %237
 .[E,,E,]2 .[D,,D,]2 .[^F,,^F,]2 .[^F,,,F,,]2 | .[G,,,G,,]2 .[A,,,A,,]2 .[B,,,B,,]2 .[^C,,^C,]2 | %239
 .[^G,,^G,]2 .[B,,B,]2 .[^C,^C]2 .[B,,B,]2 | .[E,E]2 .[E,,E,]2 !>![^F,,^F,]3 [^G,,^G,] | %241
 .[B,,B,]2 .[A,,A,]2 .[^C,^C]2 .[^C,,C,]2 | .[D,,D,]2 .[E,,E,]2 .[^F,,^F,]2 .[^G,,^G,]2 | %243
[K:treble] (^C2 ^D2 E2 D2) | (E2 ^F2 G2 F2) | (A2 B2 !courtesy!=c2 B2) |[K:bass] (D2 E2) (D2 E2) | %247
 (D2 E2) (C2 D2) | (_B,2 C2) (A,2 A,) z |[K:treble] .[DA]2 .[CG]2 .[B,^F]2 .[A,E]2 | %250
[K:bass] .[G,D]2 .[!courtesy!=F,!courtesy!=C]2 .[E,B,]2 .[D,A,]2 | %251
 .[C,C]2 .[B,,B,]2 .[A,,A,]2 .[G,,G,]2 | .[F,,F,]2 .[E,,E,]2 .[D,,D,]2 .[C,,C,]2 | %253
!mf! !>!A,4 !>!A,4 | !>!A,4 !>!A,4 | %255
!f! !tenuto!.[B,,E,G,B,]2!<(! !tenuto!.[C,^F,A,C]2 !tenuto!.[D,G,B,D]2 !tenuto!.[E,A,CE]2!<)! | %256
!ff! !tenuto!.[B,,E,G,B,]2 !tenuto!.[C,^F,A,C]2 !tenuto!.[D,G,B,D]2 !tenuto!.[E,A,CE]2 | %257
"^m.g. p mais en dehors" z8 |"^trés chanté" z8 | z8 | z8 | !tenuto!.D4- D2 !tenuto!.^C2 | %262
 !tenuto!.B,4 !tenuto!.^C4 | !>!D8 | !tenuto!.D,4- D,2 z2 | (([G,B,]2 [A,C]2 [B,D]2 [CE]2)) | %266
 (([G,B,]2 [A,C]2 [B,D]2 [CE]2)) |!mf! ([E,,E,]2 [^F,,^F,]2 [G,,G,]2 [A,,A,]2) | %268
!p! ([E,,E,]2 [^F,,^F,]2 [G,,G,]2 [A,,A,]2) | %269
!mf! !tenuto!.[B,,E,G,B,]2 !tenuto!.[C,^F,A,C]2 !tenuto!.[D,G,B,D]2 !tenuto!.[E,A,CE]2 | %270
 !tenuto!.[B,,E,G,B,]2 !tenuto!.[C,^F,A,C]2 !tenuto!.[D,G,B,D]2 !tenuto!.[E,A,CE]2 | %271
 (([D,^F,]2 [E,G,]2"^accel." [F,A,]2 [G,B,]2)) | (([D,^F,]2 [E,G,]2 [F,A,]2 [G,B,]2)) | %273
!f! .[E,,E,]2!pp! .[D,,D,]2"^subito" .[C,,C,]2"^rall." .[B,,,B,,]2 | %274
 .[C,,C,]2 .[B,,,B,,]2 .[A,,,A,,]2 .[G,,,G,,]2 | .[A,,,A,,]2 .[A,,,A,,]2 .[A,,,A,,]2 .[A,,,A,,]2 | %276
 .[A,,,A,,]2 .[A,,,A,,]2 .[A,,,A,,]2 .[A,,,A,,]2 | %277
 .[A,,,A,,]2 .[A,,,A,,]2 .[A,,,A,,]2 .[A,,,A,,]2 | %278
 .[A,,,A,,]2 .[A,,,A,,]2 .[A,,,A,,]2 .[A,,,A,,]2 | %279
 .[A,,,A,,]2 .[A,,,A,,]2 .[A,,,A,,]2 .[A,,,A,,]2 | %280
 .[A,,,A,,]2 .[A,,,A,,]2 .[A,,,A,,]2 .[A,,,A,,]2 | %281
 .[A,,,A,,]2 .[A,,,A,,]2 .[A,,,A,,]2 .[A,,,A,,]2 | %282
 .[A,,,A,,]2 .[A,,,A,,]2 .[A,,,A,,]2 .[A,,,A,,]2 | %283
 .[A,,,A,,]2 .[A,,,A,,]2 .[A,,,A,,]2 .[A,,,A,,]2 | %284
 .[A,,,A,,]2 .[A,,,A,,]2 .[A,,,A,,]2 .[A,,,A,,]2 | %285
 .[A,,,A,,]2 .[A,,,A,,]2 .[A,,,A,,]2 .[A,,,A,,]2 | %286
 .[B,,,B,,]2 .[B,,,B,,]2 .[B,,,B,,]2 .[B,,,B,,]2 | %287
 .[B,,,B,,]2 .[B,,,B,,]2 .[B,,,B,,]2 .[B,,,B,,]2 | %288
 .[B,,,B,,]2 .[B,,,B,,]2 .[B,,,B,,]2 .[B,,,B,,]2 | %289
 .[B,,,B,,]2 .[B,,,B,,]2 .[B,,,B,,]2 .[B,,,B,,]2 | %290
 .[A,,,A,,]2 .[A,,,A,,]2 .[A,,,A,,]2 .[A,,,A,,]2 | %291
 .[A,,,A,,]2 .[A,,,A,,]2 .[A,,,A,,]2 .[A,,,A,,]2 | %292
 .[^E,,,^E,,]2 .[^F,,,^F,,]2 .[E,,,E,,]2 .[F,,,F,,]2 | %293
 .[^E,,,^E,,]2 .[^F,,,^F,,]2 .[E,,,E,,]2 .[F,,,F,,]2 |] %294
V:5
 x8 | x8 | x8 | x8 | x8 | x8 | x8 | x8 | x8 | x8 | x8 | x7[K:treble] (B | A2 E2 A2) z (B | %13
 A2 E2 A2) z (B | A2 E2 A2) z (B | A2 E2 A2) z2[K:bass] | x8 | x8 | x8 | x8 | x8 | x8 | x8 | x8 | %24
 x8 | x8 | x8 | x8 | x8 | x8 | z6 z[K:treble] (B | E2 ^F2) (^GAB) z | (^F2 ^G2 FED) z | %33
[K:bass] x8 | x8 | x8 | !>![C,,C,]2 z .[C,,C,] !>![C,,C,]2 z2 | %37
 !>![C,,C,]2 z .[C,,C,] !>![C,,C,]2 z2 | !>![C,,C,]2 z .[C,,C,] !>![C,,C,]2 z2 | %39
 !>![C,,C,]2 z .[C,,C,] !>![C,,C,]2 z2 | !>![C,,C,]2 z .[C,,C,] !>![C,,C,]2 z2 | %41
 !>![C,,C,]2 z .[C,,C,] !>![C,,C,]2 z2 | x8 |[K:treble] !>!E6 x2 | x8 | x4[K:bass] x4 | x8 | x8 | %48
 x8 | x8 | x8 | x8 | x8 | x8 | x8 | x8 | x8 | x8 | x8 |[K:treble] (E2 D2 ^C2 D2) | %60
[K:bass] (A,2 !courtesy!=G,2 ^F,2 G,2) | (D,2 !courtesy!=C,2 B,,2 C,2) | !>![C,E,]4 !>![C,E,]4 | %63
 !>![C,E,]4 !>![^F,A,]4 | x8 | x8 | x8 | x8 | x8 | x8 | x8 | x8 | (_B,,C,_D,_E, F,G,_A,_B, | %73
 C2) (=A,2 G,A, B,2) | x8 | x8 | x8 | x8 | x8 | x8 | x8 | x8 | x8 | x8 | !>!D,,6 z2 | !>!D,,6 z2 | %86
 !>!D,,6 z2 | !>!D,,6 z2 | !>!D,,6 z2 | !>!D,,6 z2 | !>!D,,6 z2 | %91
[K:treble] .G2 .!courtesy!=F2 .E2 .D2 | .C2 ._B,2[K:bass] x4 | x8 | x8 | (D,2 _E,2 F,2 G,2) | %96
 (D,2 _E,2 F,2 G,2) | (D,2 _E,2 F,2 G,2) | (D,2 _E,2 F,2 G,2) | (D,2 _E,2 F,2 G,2) | %100
 (D,2 _E,2 F,2 G,2) | !>![G,,,G,,]2 z .[G,,,G,,] !>![G,,,G,,]2 z2 | %102
 !>![G,,,G,,]2 z .[G,,,G,,] !>![G,,,G,,]2 z2 | !>![G,,,G,,]2 z .[G,,,G,,] !>![G,,,G,,]2 z2 | %104
 !>![G,,,G,,]2 z .[G,,,G,,] !>![G,,,G,,]2 z2 | !>![G,,,G,,]2 z .[G,,,G,,] !>![G,,,G,,]2 z2 | %106
 !>![G,,,G,,]2 z .[G,,,G,,] !>![G,,,G,,]2 z2 | !>![G,,,G,,]2 z .[G,,,G,,] !>![G,,,G,,]2 z2 | %108
 !>![G,,,G,,]2 z .[G,,,G,,] !>![G,,,G,,]2 z2 | C,D,_E,F, x4 | x8 | x8 | x8 | x8 | x7[K:treble] (E | %115
 A,2 B,2) (^CDE) z | (B,2 ^C2 B,A,G,) z |[K:bass] !>!C,6 z2 | !>!C,6 z2 | !>!C,6 z2 | !>!C,6 z2 | %121
[K:treble] x8 | x8 |[K:bass] x8 | x8 | x8 | x8 | %127
 z .[C,,C,].[D,,D,].[E,,E,] .[D,,D,].[C,,C,].[B,,,B,,] z | x7[K:treble] (A | G2 D2 G) x2 (A | %130
 G2 D2 G) x2 (A | G2 D2 G) x2 (A | G2 D2 G) x2[K:bass] (^F, | E,2 B,,2 E,2) x (^F, | %134
 E,2 B,,2 E,2) x (^F, | E,2 B,,2 E,2) x (^F, | E,2 B,,2 E,2) x2 | x8 | x8 | x8 | x8 | !>!B,6 x2 | %142
 !>!B,6 x2 | !>!B,6 x2 | !>!B,6 x2 | x8 | x8 | x8 | x8 | x8 | x8 | x8 | x8 | x8 | x8 | x8 | x8 | %157
 x8 | x8 | x8 | x8 | x8 | x8 | x8 | x8 | x8 | x8 | x8 | x8 | %169
 z !tenuto!.[C,,C,]2 !tenuto!.[C,,C,]2 !tenuto!.[C,,C,]2 !tenuto!.[C,,C,] | %170
 z !tenuto!.[C,,C,]2 !tenuto!.[C,,C,]2 !tenuto!.[C,,C,]2 !tenuto!.[C,,C,] | %171
 z !tenuto!.[C,,C,]2 !tenuto!.[C,,C,]2 !tenuto!.[C,,C,]2 !tenuto!.[C,,C,] | x8 | x8 | %174
 z !tenuto!.[G,,,G,,]2 !tenuto!.[F,,,F,,]2 !tenuto!.[G,,,G,,]!tenuto!.[A,,,A,,]!ff!!tenuto!.[_B,,,_B,,] | %175
 x8 | x8 | x8 | x8 |[K:treble] x8 | x8 |[K:bass] x8 | x8 | (B,,2 ^C,2 D,2 E,2) | %184
 (B,,2 ^C,2 D,2 E,2) | (B,,2 ^C,2 D,2 E,2) | (B,,2 ^C,2 D,2 E,2) | %187
 !>![D,,D,]2 z .[D,,D,] !>![D,,D,]2 z2 | !>![D,,D,]2 z .[D,,D,] !>![D,,D,]2 z2 | %189
 !>![D,,D,]2 z .[D,,D,] !>![D,,D,]2 z2 | !>![D,,D,]2 z .[D,,D,] !>![D,,D,]2 z2 | %191
 !>![D,,D,]2 z .[D,,D,] !>![D,,D,]2 z2 | !>![D,,D,]2 z .[D,,D,] !>![D,,D,]2 z2 | x8 | x8 | x8 | %196
 x8 | x8 | x8 |[K:treble] ([^C^F]2 [DG]2 [CF]2) x2 | ([^C^F]2 [DG]2 [CF]2) x2 | %201
 ([^C^F]2 [DG]2 [CF]2) x2 | ([^C^F]2 [DG]2 [CF]2) x2 | %203
[K:bass] ([^F,B,]2 [G,!courtesy!=C]2 [F,B,]2) x2 | ([^F,B,]2 [G,C]2 [F,B,]2) x2 | %205
 ([^F,B,]2 [G,C]2 [F,B,]2) x2 | ([^F,B,]2 [G,C]2 [F,B,]2) x2 | ([B,,E,]2 [C,F,]2 [B,,E,]2) x2 | %208
 ([B,,E,]2 [C,F,]2 [B,,E,]2) x2 | ([B,,E,]2 [C,F,]2 [B,,E,]2) x2 | ([B,,E,]2 [C,F,]2 [B,,E,]2) x2 | %211
 x8 | x8 | x8 | z6 z (A, | D,2 E,2) (^F,G,A,) x | (E,2 ^F,2 E,D,!courtesy!=C,) z | %217
 (A,G, F,2 G,2 E,2) | (E,D, C,2 D,2 B,,2) | (B,,A,, G,,2 A,,2 ^F,,2) | x8 | x8 | x6 D, z | x8 | %224
 x8 | x8 | x8 | x8 | x8 | x8 | x8 | x8 | x8 | x8 | x8 | x8 | x8 | x8 | x8 | x8 | x8 | x8 | x8 | %243
[K:treble] (B,2 A,2 ^G,2 B,2) | (!courtesy!=D2 !courtesy!=C2 B,2 D2) | (G2 !courtesy!=F2 E2 G2) | %246
[K:bass] !>![F,A,]4 !>![F,A,]4 | !>![F,A,]4 !>![E,G,]4 | !>![D,F,]4 !>![C,E,]3 z |[K:treble] x8 | %250
[K:bass] x8 | x8 | x8 | ([B,,D,]2 [C,E,]2) ([B,,D,]2 [C,E,]2) | %254
 ([B,,D,]2 [C,E,]2) ([B,,D,]2 [C,E,]2) | !>![D,,D,]4 !>![A,,,A,,]4 | !>![D,,D,]4 !>![A,,,A,,]4 | %257
 x8 | x8 | x8 | x8 | x8 | x8 | x8 | x8 | (E,2 ^F,2 G,2 A,2) | (E,2 ^F,2 G,2 A,2) | x8 | x8 | %269
 !tenuto!.[E,,,E,,]2 !tenuto!.[^F,,,^F,,]2 !tenuto!.[G,,,G,,]2 !tenuto!.[A,,,A,,]2 | %270
 !tenuto!.[E,,,E,,]2 !tenuto!.[^F,,,^F,,]2 !tenuto!.[G,,,G,,]2 !tenuto!.[A,,,A,,]2 | %271
 (B,,2 C,2 D,2 E,2) | (B,,2 C,2 D,2 E,2) | x8 | x8 | x8 | x8 | x8 | x8 | x8 | x8 | x8 | x8 | x8 | %284
 x8 | x8 | x8 | x8 | x8 | x8 | x8 | x8 | x8 | x8 |] %294
V:6
 x8 | x8 | x8 | x8 | x8 | x8 | x8 | x8 | x8 | x8 | x8 | x7[K:treble] x | x8 | x8 | x8 | %15
 x7[K:bass] x | x8 | x8 | x8 | x8 | x8 | x8 | x8 | x8 | x8 | x8 | x8 | x8 | x8 | x8 | %30
 x7[K:treble] x | x8 | x8 |[K:bass] x8 | x8 | x8 | x8 | x8 | x8 | x8 | x8 | x8 | x8 | %43
[K:treble] x8 | x8 | x4[K:bass] x4 | x8 | x8 | x8 | x8 | x8 | x8 | x8 | x8 | x8 | x8 | x8 | x8 | %58
 x8 |[K:treble] x8 |[K:bass] x8 | x8 | ([A,,,A,,]2 [B,,,B,,]2) ([A,,,A,,]2 [B,,,B,,]2) | %63
 ([A,,,A,,]2 [B,,,B,,]2) ([D,,D,]2 [E,,E,]2) | x8 | x8 | x8 | x8 | x8 | x8 | x8 | x8 | x8 | x8 | %74
 x8 | x8 | x8 | x8 | x8 | x8 | x8 | x8 | x8 | x8 | x8 | x8 | x8 | x8 | x8 | x8 | x8 | %91
[K:treble] x8 | x4[K:bass] x4 | x8 | x8 | x8 | x8 | x8 | x8 | x8 | x8 | x8 | x8 | x8 | x8 | x8 | %106
 x8 | x8 | x8 | x8 | x8 | x8 | x8 | x8 | x7[K:treble] x | x8 | x8 |[K:bass] x8 | x8 | x8 | x8 | %121
[K:treble] x8 | x8 |[K:bass] x8 | x8 | x8 | x8 | x8 | x7[K:treble] x | x8 | x8 | x8 | %132
 x7[K:bass] x | x8 | x8 | x8 | x8 | x8 | x8 | x8 | x7 ^C, | B,,2 ^F,,2 B,,2 x ^C, | %142
 B,,2 ^F,,2 B,,2 x ^C, | B,,2 ^F,,2 B,,2 x ^C, | B,,2 ^F,,2 B,,2 x z | x8 | x8 | x8 | x8 | x8 | %150
 x8 | x8 | x8 | x8 | x8 | x8 | x8 | x8 | x8 | x8 | x8 | x8 | x8 | x8 | x8 | x8 | x8 | x8 | x8 | %169
 x8 | x8 | x8 | x8 | x8 | x8 | x8 | x8 | x8 | x8 |[K:treble] x8 | x8 |[K:bass] x8 | x8 | x8 | x8 | %185
 x8 | x8 | x8 | x8 | x8 | x8 | x8 | x8 | x8 | x8 | x8 | x8 | x8 | x8 |[K:treble] x8 | x8 | x8 | %202
 x8 |[K:bass] x8 | x8 | x8 | x8 | x8 | x8 | x8 | x8 | x8 | x8 | x8 | x8 | x8 | x8 | x8 | x8 | x8 | %220
 x8 | x8 | x8 | x8 | x8 | x8 | x8 | x8 | x8 | x8 | x8 | x8 | x8 | x8 | x8 | x8 | x8 | x8 | x8 | %239
 x8 | x8 | x8 | x8 |[K:treble] x8 | x8 | x8 |[K:bass] ([D,,D,]2 [E,,E,]2) ([D,,D,]2 [E,,E,]2) | %247
 ([D,,D,]2 [E,,E,]2) ([C,,C,]2 [D,,D,]2) | ([_B,,,_B,,]2 [C,,C,]2) ([A,,,A,,]2 [A,,,A,,]) z | %249
[K:treble] x8 |[K:bass] x8 | x8 | x8 | ([A,,,A,,]2 [G,,,G,,]2 [A,,,A,,]2 [G,,,G,,]2 | %254
 [A,,,A,,]2 [G,,,G,,]2 [A,,,A,,]2 [G,,,G,,]2) | x8 | x8 | x8 | x8 | x8 | x8 | x8 | x8 | x8 | x8 | %265
 x8 | x8 | x8 | x8 | x8 | x8 | x8 | x8 | x8 | x8 | x8 | x8 | x8 | x8 | x8 | x8 | x8 | x8 | x8 | %284
 x8 | x8 | x8 | x8 | x8 | x8 | x8 | x8 | x8 | x8 |] %294

